%
O0001 (DEMO-FLANGE-001 - DRILL + TAP - SYNTHETIC DEMO PART)
(GENERIC ISO G-CODE - FOR ILLUSTRATION ONLY, NOT MACHINE-READY)
(DATUM: G54, X0 Y0 = part axis ; Z0 = BOTTOM face of flange)
G21 G90 G94 G40 G80 G17
G91 G28 Z0
G90
T01 M06 (DRILL D6.6 CARBIDE)
S4823 M03 M08
G98 G81 X80.000 Y0.000 R9.0 Z-1.0 F579
X40.000 Y69.282
X-40.000 Y69.282
X-80.000 Y0.000
X-40.000 Y-69.282
X40.000 Y-69.282
G80
T02 M06 (COUNTERSINK 90DEG D12)
S3500 M03
G98 G82 X80.000 Y0.000 R9.0 Z2.7 P200 F250
X40.000 Y69.282
X-40.000 Y69.282
X-80.000 Y0.000
X-40.000 Y-69.282
X40.000 Y-69.282
G80
T03 M06 (DRILL D5.0 - M6 PILOT)
S6366 M03
G98 G83 X35.355 Y35.355 R31.0 Z14.0 Q5.0 F637
X-35.355 Y35.355
X-35.355 Y-35.355
X35.355 Y-35.355
G80
T04 M06 (TAP M6X1.0 RIGID)
S800 M03
G98 G84 X35.355 Y35.355 R31.0 Z16.0 F800
X-35.355 Y35.355
X-35.355 Y-35.355
X35.355 Y-35.355
G80
G91 G28 Z0
M09 M05
M30
%
